icons/namecheap.svg

<svg xmlns="http://www.w3.org/2000/svg" viewBox="0 0 256 141.9">
  <defs>
    <linearGradient id="a" x1="226.201" x2="302.953" y1="105.159" y2="1.253" gradientTransform="scale(.79453 1.2586)" gradientUnits="userSpaceOnUse">
      <stop offset="0%" stop-color="#D4202C"/>
      <stop offset="4.166%" stop-color="#D82D2B" stop-opacity=".958"/>
      <stop offset="17.6%" stop-color="#E25226" stop-opacity=".824"/>
      <stop offset="31.67%" stop-color="#EB7123" stop-opacity=".683"/>
      <stop offset="46.35%" stop-color="#F28920" stop-opacity=".536"/>
      <stop offset="61.88%" stop-color="#F69A1E" stop-opacity=".381"/>
      <stop offset="78.86%" stop-color="#F9A41D" stop-opacity=".211"/>
      <stop offset="100%" stop-color="#FAA71D" stop-opacity="0"/>
    </linearGradient>
    <linearGradient id="b" x1="95.943" x2="19.19" y1="7.569" y2="111.475" gradientTransform="scale(.79453 1.2586)" gradientUnits="userSpaceOnUse">
      <stop offset="0%" stop-color="#D4202C"/>
      <stop offset="4.166%" stop-color="#D82D2B" stop-opacity=".958"/>
      <stop offset="17.6%" stop-color="#E25226" stop-opacity=".824"/>
      <stop offset="31.67%" stop-color="#EB7123" stop-opacity=".683"/>
      <stop offset="46.35%" stop-color="#F28920" stop-opacity=".536"/>
      <stop offset="61.88%" stop-color="#F69A1E" stop-opacity=".381"/>
      <stop offset="78.86%" stop-color="#F9A41D" stop-opacity=".211"/>
      <stop offset="100%" stop-color="#FAA71D" stop-opacity="0"/>
    </linearGradient>
  </defs>
  <path fill="#ff5000" d="M232 0c-9 0-16.8 5-20.9 12.3l-.5 1-18.8 37L168 97.2l15.6 30.7.9 1.7c2.4 4.2 6 7.7 10.4 9.8 4.4-2.2 8-5.6 10.4-9.8l.9-1.7 46.7-92 1.1-2.2c1.3-3 2-6.2 2-9.7 0-13.3-10.7-24-24-24zM87.9 44.6 72.4 14l-.9-1.7c-2.4-4.2-6-7.7-10.4-9.8-4.4 2.2-8 5.6-10.4 9.8l-.8 1.7-46.7 92-1.1 2.2c-1.3 3-2 6.2-2 9.7 0 13.2 10.7 24 24 24 9 0 16.8-5 20.9-12.3l.5-1 18.8-37L88 44.7z"/>
  <path fill="url(#a)" d="M232 0c-9 0-16.9 5-20.9 12.3l-.5 1-18.8 37L168 97.2l15.6 30.7.9 1.7c2.4 4.2 6 7.7 10.4 9.8 4.4-2.2 8-5.6 10.4-9.8l.9-1.7 46.7-92 1.1-2.2c1.3-3 2-6.2 2-9.7 0-13.3-10.8-24-24-24z" style="fill:url(#a)"/>
  <path fill="url(#b)" d="M24 141.9c9 0 16.9-5 20.9-12.3l.5-1 18.8-37L88 44.7 72.4 14l-.9-1.7c-2.4-4.2-6-7.7-10.4-9.8-4.4 2.2-8 5.6-10.4 9.8l-.8 1.7-46.7 92-1.2 2.3c-1.3 3-2 6.2-2 9.7 0 13.2 10.7 23.9 24 23.9z" style="fill:url(#b)"/>
  <path fill="#ff8c44" d="M87.9 44.6 72.4 14l-.9-1.7c-2.4-4.2-6-7.7-10.4-9.8 1.4-.7 3-1.3 4.5-1.7 1.9-.5 4-.8 6-.8H104.4c9 .1 16.8 5 20.9 12.3l.7 1.7 42.1 83.3 15.5 30.6.9 1.7c2.4 4.2 6 7.7 10.4 9.8-1.4.7-3 1.3-4.5 1.7-1.9.5-4 .8-6.1.8H151.7c-9-.1-16.8-5-20.9-12.3l-.9-1.7z"/>
</svg>

<?xml version="1.0" encoding="UTF-8" standalone="no"?>
<svg width="256px" height="142px" viewBox="0 0 256 142" version="1.1" xmlns="http://www.w3.org/2000/svg" xmlns:xlink="http://www.w3.org/1999/xlink" preserveAspectRatio="xMidYMid">
    <defs>
        <linearGradient x1="13.3220455%" y1="94.9449067%" x2="82.6195455%" y2="1.13156385%" id="linearGradient-1">
            <stop stop-color="#D4202C" offset="0%"></stop>
            <stop stop-color="#D82D2B" stop-opacity="0.9583" offset="4.166156%"></stop>
            <stop stop-color="#E25226" stop-opacity="0.824" offset="17.6%"></stop>
            <stop stop-color="#EB7123" stop-opacity="0.6833" offset="31.67%"></stop>
            <stop stop-color="#F28920" stop-opacity="0.5365" offset="46.35%"></stop>
            <stop stop-color="#F69A1E" stop-opacity="0.3812" offset="61.88%"></stop>
            <stop stop-color="#F9A41D" stop-opacity="0.2114" offset="78.86%"></stop>
            <stop stop-color="#FAA71D" stop-opacity="0" offset="100%"></stop>
        </linearGradient>
        <linearGradient x1="86.6243182%" y1="5.04045911%" x2="17.3261364%" y2="98.8545194%" id="linearGradient-2">
            <stop stop-color="#D4202C" offset="0%"></stop>
            <stop stop-color="#D82D2B" stop-opacity="0.9583" offset="4.166156%"></stop>
            <stop stop-color="#E25226" stop-opacity="0.824" offset="17.6%"></stop>
            <stop stop-color="#EB7123" stop-opacity="0.6833" offset="31.67%"></stop>
            <stop stop-color="#F28920" stop-opacity="0.5365" offset="46.35%"></stop>
            <stop stop-color="#F69A1E" stop-opacity="0.3812" offset="61.88%"></stop>
            <stop stop-color="#F9A41D" stop-opacity="0.2114" offset="78.86%"></stop>
            <stop stop-color="#FAA71D" stop-opacity="0" offset="100%"></stop>
        </linearGradient>
    </defs>
	<g>
		<path d="M232,0 C223,0 215.2,5 211.1,12.3 L210.6,13.3 L191.8,50.3 L168,97.2 L183.6,127.9 L184.5,129.6 C186.9,133.8 190.5,137.3 194.9,139.4 C199.3,137.2 202.9,133.8 205.3,129.6 L206.2,127.9 L252.9,35.9 L254,33.7 C255.3,30.7 256,27.5 256,24 C256,10.7 245.3,0 232,0 L232,0 Z" fill="#FF5000"></path>
		<path d="M87.9,44.6 L72.4,14 L71.5,12.3 C69.1,8.1 65.5,4.6 61.1,2.5 C56.7,4.7 53.1,8.1 50.7,12.3 L49.9,14 L3.2,106 L2.1,108.2 C0.8,111.2 0.1,114.4 0.1,117.9 C0.1,131.1 10.8,141.9 24.1,141.9 C33.1,141.9 40.9,136.9 45,129.6 L45.5,128.6 L64.3,91.6 L88,44.7 L87.9,44.6 L87.9,44.6 Z" fill="#FF5000"></path>
		<path d="M232,0 C223,0 215.1,5 211.1,12.3 L210.6,13.3 L191.8,50.3 L168,97.2 L183.6,127.9 L184.5,129.6 C186.9,133.8 190.5,137.3 194.9,139.4 C199.3,137.2 202.9,133.8 205.3,129.6 L206.2,127.9 L252.9,35.9 L254,33.7 C255.3,30.7 256,27.5 256,24 C256,10.7 245.2,0 232,0 L232,0 Z" fill="url(#linearGradient-1)"></path>
		<path d="M24,141.9 C33,141.9 40.9,136.9 44.9,129.6 L45.4,128.6 L64.2,91.6 L88,44.7 L72.4,14 L71.5,12.3 C69.1,8.1 65.5,4.6 61.1,2.5 C56.7,4.7 53.1,8.1 50.7,12.3 L49.9,14 L3.2,106 L2,108.3 C0.7,111.3 0,114.5 0,118 C0,131.2 10.7,141.9 24,141.9 L24,141.9 Z" fill="url(#linearGradient-2)"></path>
		<path d="M87.9,44.6 L72.4,14 L71.5,12.3 C69.1,8.1 65.5,4.6 61.1,2.5 C62.5,1.8 64.1,1.2 65.6,0.8 C67.5,0.3 69.6,0 71.6,0 L71.6,0 L104,0 L104.2,0 L104.4,0 C113.4,0.1 121.2,5 125.3,12.3 L126,14 L168.1,97.3 L183.6,127.9 L184.5,129.6 C186.9,133.8 190.5,137.3 194.9,139.4 C193.5,140.1 191.9,140.7 190.4,141.1 C188.5,141.6 186.4,141.9 184.3,141.9 L184.3,141.9 L152.1,141.9 L151.9,141.9 L151.7,141.9 C142.7,141.8 134.9,136.9 130.8,129.6 L129.9,127.9 L87.9,44.6 L87.9,44.6 Z" fill="#FF8C44"></path>
	</g>
</svg>
